X: 1
T: Crowley's
M: 4/4
L: 1/8
S: George Keith
K: Dmaj
e|f2 ed edBc|dB{d}BA BAFA|~B3d AFDF|GE{G}ED EFGe|
f2 ed edBc|dB{d}BA BAFA|~B3d AFDF|~E3G FDFA||
d2 dc dAFA|~B3d cAFA|B{d}B AF G2 FD|~E3G FDFA|
d2 d/d/c dAFA|~B3d cAFA|BdAd GdFd|~E3G FDde||
